Newaita-dark/.DP/24/teamviewer-indicator-offline.svg

<svg xmlns="http://www.w3.org/2000/svg" xmlns:xlink="http://www.w3.org/1999/xlink" width="24px" height="24px" viewBox="0 0 24 24" version="1.1">
<g id="surface1">
<path style=" stroke:none;fill-rule:nonzero;fill:rgb(93.333334%,93.333334%,93.333334%);fill-opacity:0.392157;" d="M 11.90625 3.164062 C 6.960938 3.164062 2.976562 7.148438 2.976562 12.09375 C 2.976562 17.042969 6.960938 21.023438 11.90625 21.023438 C 16.855469 21.023438 20.835938 17.042969 20.835938 12.09375 C 20.835938 7.148438 16.855469 3.164062 11.90625 3.164062 Z M 14.375 8.617188 C 14.644531 8.617188 14.898438 8.726562 15.085938 8.914062 L 17.566406 11.398438 C 17.953125 11.78125 17.953125 12.40625 17.566406 12.792969 L 15.085938 15.273438 C 14.835938 15.53125 14.472656 15.632812 14.125 15.539062 C 13.78125 15.449219 13.515625 15.179688 13.421875 14.835938 C 13.335938 14.492188 13.4375 14.125 13.6875 13.875 L 14.488281 13.078125 C 14.453125 13.082031 14.421875 13.082031 14.390625 13.082031 L 9.328125 13.082031 L 10.125 13.875 C 10.382812 14.125 10.484375 14.492188 10.390625 14.835938 C 10.300781 15.179688 10.03125 15.449219 9.6875 15.539062 C 9.34375 15.632812 8.976562 15.53125 8.726562 15.273438 L 6.25 12.792969 C 5.859375 12.40625 5.859375 11.78125 6.25 11.398438 L 8.726562 8.914062 C 8.90625 8.734375 9.148438 8.625 9.40625 8.617188 C 9.8125 8.605469 10.1875 8.84375 10.34375 9.21875 C 10.507812 9.59375 10.417969 10.03125 10.125 10.3125 L 9.328125 11.109375 L 14.390625 11.109375 C 14.421875 11.109375 14.453125 11.109375 14.492188 11.109375 L 13.6875 10.3125 C 13.402344 10.03125 13.3125 9.605469 13.460938 9.234375 C 13.613281 8.859375 13.976562 8.617188 14.375 8.617188 Z M 15.382812 12.007812 C 15.390625 12.066406 15.390625 12.125 15.386719 12.179688 L 15.472656 12.09375 Z M 15.382812 12.007812 "/>
</g>
</svg>

<svg xmlns="http://www.w3.org/2000/svg" width="32" height="32" viewBox="0 0 24 24"><path d="M11.906 3.164a8.912 8.912 0 0 0-8.93 8.93 8.913 8.913 0 0 0 8.93 8.933 8.914 8.914 0 0 0 8.934-8.933 8.913 8.913 0 0 0-8.934-8.93zm2.473 5.453c.266 0 .52.106.707.297l2.48 2.484a.983.983 0 0 1 0 1.395l-2.48 2.48a.987.987 0 1 1-1.395-1.394l.797-.8c-.035.003-.066.003-.101.003H9.332l.793.797a.987.987 0 1 1-1.398 1.394l-2.48-2.48a.99.99 0 0 1 0-1.395l2.48-2.484a.99.99 0 0 1 1.621.305.992.992 0 0 1-.223 1.093l-.793.793h5.055c.035 0 .07.004.101.008l-.797-.8a.983.983 0 0 1-.226-1.079.98.98 0 0 1 .914-.617zm1.008 3.39c.004.06.004.118 0 .173l.086-.086zm0 0" fill="#bdbdbd" fill-opacity=".392"/></svg>
